X: 6
T: Missa J'ay pris amours / Kyrie
N: Derived from Ort1002a-Missa_Jay_pris_amours-Kyrie.krn
C: Marbrianus de Orto
%%abc-version 2.0
%%abcx-abcm2ps-target-version 5.9.1 (29 Sep 2008)
%%abc-creator hum2abc beta
%%abcx-conversion-date 2019/02/17 07:28:36
%%abc-edited-by Jesse Rodin
%%abc-edited-by Jesse Rodin 8/11/2013
%%abcx-initial-encoding-date 2013/08/11/
%%humdrum-veritas 3420557496
%%humdrum-veritas-data 3506297615
%%linebreak <none>
%%barnumbers 0
L: 1/4
M: 4/2
Q: 1/2=120
%%staves [1 2 3 4]
V: 1 clef=treble
V: 2 clef=treble-8
V: 3 clef=treble-8
V: 4 clef=bass
K: C
[V:1] A4c4 | 
[V:2] A8 | 
[V:3] z8 | 
[V:4] z8 | 
[V:1] B4E4 | 
[V:2] G4c4 | 
[V:3] z8 | 
[V:4] z4A,3G, | 
[V:1] z2G2A2B2 | 
[V:2] d2e2A2e2- | 
[V:3] z8 | 
[V:4] F,2E,2F,2E,2 | 
[V:1] c3BA2G2 | 
[V:2] edc3de2 | 
[V:3] z8 | 
[V:4] A,3G,F,2E,2 | 
[V:1] z2B2c2d2 | 
[V:2] d2e3dB2 | 
[V:3] z8 | 
[V:4] F,2E,2A,2G,2 | 
[V:1] e2d3cBA | 
[V:2] A2z2B2d2 | 
[V:3] z8 | 
[V:4] C2B,2G,3F, | 
[V:1] G2A4^G2 | 
[V:2] e2A2B4 | 
[V:3] z8 | 
[V:4] E,2F,2E,4 | 
[V:1] A8 | 
[V:2] A2c2d2f2 | 
[V:3] A8 | 
[V:4] z2F,3E,D,2 | 
[V:1] z8 | 
[V:2] e2f3ec2- | 
[V:3] A4A4 | 
[V:4] C,2D,2F,4 | 
[V:1] z8 | 
[V:2] c2BAB4 | 
[V:3] G8 | 
[V:4] E,8 | 
[V:1] z2A2c4 | 
[V:2] A4z4 | 
[V:3] A8 | 
[V:4] F,8 | 
[V:1] B4E2B2 | 
[V:2] e4g4 | 
[V:3] E8 | 
[V:4] z2G,4E,2 | 
[V:1] c4B4 | 
[V:2] e8 | 
[V:3] z4G4 | 
[V:4] A,4E,4 | 
[V:1] E4z2D2 | 
[V:2] c4g4- | 
[V:3] A4B4 | 
[V:4] z2A,2G,4 | 
[V:1] E2A3Gd2- | 
[V:2] g2f2d2B2 | 
[V:3] c4B2G2 | 
[V:4] C,2F,2G,4 | 
[V:1] dcc4B2 | 
[V:2] c4d4 | 
[V:3] A4G4 | 
[V:4] z4z2G,2 | 
[V:1] c2BAG4 | 
[V:2] c4e3d | 
[V:3] z4B4 | 
[V:4] A,4E,4 | 
[V:1] z8 | 
[V:2] cBA3GAB | 
[V:3] c4d4 | 
[V:4] A,3G,F,E,D,2 | 
[V:1] G2A2c2B2- | 
[V:2] c2A2e2g2 | 
[V:3] e2c4d2 | 
[V:4] C,2F,2A,2G,2 | 
[V:1] BAA3^GG^F | 
[V:2] fe2de4- | 
[V:3] c2A2B4 | 
[V:4] A,2F,2E,4 | 
[V:1] A8 ||  
[V:2] e8 ||  
[V:3] A8 ||  
[V:4] A,8 ||  
[V:1]  [K:C] [K:clef=treble][M:4/2]z8 | 
[V:2]  [K:C] [K:clef=treble-8][M:4/2]B8 | 
[V:3]  [K:C] [K:clef=treble-8][M:4/2]z8 | 
[V:4]  [K:C] [K:clef=bass][M:4/2]E,8 | 
[V:1] z8 | 
[V:2] c4B4 | 
[V:3] z8 | 
[V:4] A,4G,4 | 
[V:1] z8 | 
[V:2] c2d3cBA | 
[V:3] z8 | 
[V:4] F,8 | 
[V:1] B8 | 
[V:2] G6E2 | 
[V:3] z8 | 
[V:4] E,4G,4 | 
[V:1] c4B4 | 
[V:2] e6d2 | 
[V:3] z8 | 
[V:4] A,4G,3F, | 
[V:1] c2d3cBA | 
[V:2] e2f3edc | 
[V:3] z8 | 
[V:4] E,2D,4D,2 | 
[V:1] G8 | 
[V:2] B4z2c2- | 
[V:3] z8 | 
[V:4] E,8 | 
[V:1] A4G2F2- | 
[V:2] c2A2B2d2- | 
[V:3] z8 | 
[V:4] F,4E,2D,2 | 
[V:1] F2E4D2 | 
[V:2] dcB4A2 | 
[V:3] z8 | 
[V:4] E,4F,4 | 
[V:1] E4z4 | 
[V:2] B4c2B2 | 
[V:3] z8 | 
[V:4] E,8 | 
[V:1] c8 | 
[V:2] e4f2e2- | 
[V:3] A8- | 
[V:4] z8 | 
[V:1] c4B2d2- | 
[V:2] e2c2d4 | 
[V:3] A4G4 | 
[V:4] z8 | 
[V:1] dcBAA4- | 
[V:2] z4A4 | 
[V:3] F8 | 
[V:4] z8 | 
[V:1] A4^G4 | 
[V:2] B8 | 
[V:3] E8 | 
[V:4] z8 | 
[V:1] A8 | 
[V:2] A4z4 | 
[V:3] z4e4 | 
[V:4] A,6G,2 | 
[V:1] z4G4 | 
[V:2] z8 | 
[V:3] f4e4 | 
[V:4] F,2E,D,C,4 | 
[V:1] A2G2c4 | 
[V:2] z8 | 
[V:3] c8 | 
[V:4] F,2E,2A,4 | 
[V:1] B2A4GF | 
[V:2] z8 | 
[V:3] d8 | 
[V:4] G,2F,2D,4 | 
[V:1] E8 | 
[V:2] A4c3d | 
[V:3] c8- | 
[V:4] A,8 | 
[V:1] z8 | 
[V:2] e3fg4- | 
[V:3] c4B4 | 
[V:4] z8 | 
[V:1] c8 | 
[V:2] g2^fe^f4 | 
[V:3] A8 | 
[V:4] z8 | 
[V:1] B4G4 | 
[V:2] g4e4 | 
[V:3] G4c4- | 
[V:4] E,8 | 
[V:1] A8 | 
[V:2] z2c2A4 | 
[V:3] c4d4 | 
[V:4] F,8 | 
[V:1] G4z2C2- | 
[V:2] B6c2- | 
[V:3] e8 | 
[V:4] E,4z4 | 
[V:1] CDEFE2F2 | 
[V:2] c2c4F2 | 
[V:3] A8 | 
[V:4] F,2E,D,C,2D,2 | 
[V:1] E2C2D4 | 
[V:2] G4z4 | 
[V:3] c4B4 | 
[V:4] C,4G,4 | 
[V:1] E4A4 | 
[V:2] z4A4 | 
[V:3] c4d4 | 
[V:4] A,4F,4 | 
[V:1] G2c4BA | 
[V:2] B2A2c4 | 
[V:3] e6dc | 
[V:4] E,2A,,3B,,C,D, | 
[V:1] G8- | 
[V:2] z4e4- | 
[V:3] B8- | 
[V:4] E,8- | 
[V:1] G8- | 
[V:2] e2dcB2E2 | 
[V:3] B8- | 
[V:4] E,8- | 
[V:1] G8 ||  
[V:2] e8 ||  
[V:3] B8 ||  
[V:4] E,8 ||  
[V:1]  [K:C] [K:clef=treble][M:3/1]G8G4 | 
[V:2]  [K:C] [K:clef=treble-8][M:3/1]z12 | 
[V:3]  [K:C] [K:clef=treble-8][M:3/1]z12 | 
[V:4]  [K:C] [K:clef=bass][M:3/1]E,8E,4 | 
[V:1] A6G2F2E2 | 
[V:2] z12 | 
[V:3] z12 | 
[V:4] F,4E,4A,4 | 
[V:1] E8D4 | 
[V:2] z12 | 
[V:3] z12 | 
[V:4] G,4F,8 | 
[V:1] E4z4A4 | 
[V:2] B8c4 | 
[V:3] z12 | 
[V:4] E,4G,4F,4 | 
[V:1] d6c2B2A2 | 
[V:2] B4A4d4 | 
[V:3] z12 | 
[V:4] G,4F,4G,4 | 
[V:1] A8^G4 | 
[V:2] c4B8 | 
[V:3] z12 | 
[V:4] A,4E,8 | 
[V:1] A8z4 | 
[V:2] A4e8 | 
[V:3] z12 | 
[V:4] A,4C8 | 
[V:1] G8E4 | 
[V:2] e6d2c2B2 | 
[V:3] E12 | 
[V:4] B,12 | 
[V:1] C4G4F4 | 
[V:2] A4B4c4 | 
[V:3] F4E4A4 | 
[V:4] z12 | 
[V:1] E8D4 | 
[V:2] B8A4 | 
[V:3] G4F8 | 
[V:4] z12 | 
[V:1] E8z4 | 
[V:2] B8c4- | 
[V:3] E12- | 
[V:4] G,8E,4 | 
[V:1] G8A4 | 
[V:2] c4B4A4 | 
[V:3] E8z4 | 
[V:4] C,4E,4F,4 | 
[V:1] B4c6B2 | 
[V:2] d4f4e4- | 
[V:3] G4A6B2 | 
[V:4] G,4F,4z4 | 
[V:1] G4A4B4 | 
[V:2] e4f4g4 | 
[V:3] c6BAG4 | 
[V:4] C,4F,4E,4 | 
[V:1] G8^F4 | 
[V:2] d8d4 | 
[V:3] B4A8 | 
[V:4] G,4D,8 | 
[V:1] G12 | 
[V:2] B4c4d4 | 
[V:3] G12- | 
[V:4] E,4C,4B,,4 | 
[V:1] z12 | 
[V:2] e6d2B4 | 
[V:3] G12 | 
[V:4] C,6D,2E,3F, | 
[V:1] E4F4G4 | 
[V:2] B4c3de4 | 
[V:3] z4z4E4 | 
[V:4] G,4A,4E,4 | 
[V:1] A4E4z4 | 
[V:2] A4z4c4 | 
[V:3] F4G4A4 | 
[V:4] z4E,4F,4 | 
[V:1] G4A4G4 | 
[V:2] B4A4B4 | 
[V:3] E4z4G4 | 
[V:4] G,4F,4E,4 | 
[V:1] c4B2G2A4 | 
[V:2] z4B4A4 | 
[V:3] A4G4c4- | 
[V:4] F,4G,2E,2F,4 | 
[V:1] G4c4d4 | 
[V:2] e6f2g4 | 
[V:3] c2B2A4G4 | 
[V:4] E,4z4z4 | 
[V:1] c4B6A2 | 
[V:2] g8d4- | 
[V:3] c4d4A4- | 
[V:4] C,4G,4F,4- | 
[V:1] A8^G4 | 
[V:2] d4e8 | 
[V:3] A4B8 | 
[V:4] F,4E,8 | 
[V:1] A12- | 
[V:2] c4d4f4 | 
[V:3] A12- | 
[V:4] F,4D,8 | 
[V:1] A12 |]  
[V:2] e12 |]  
[V:3] A12 |]  
[V:4] A,,12 & A,12 |]  



